src/icons/svg/bluesky.svg

<?xml version="1.0" encoding="UTF-8"?>
<svg xmlns="http://www.w3.org/2000/svg" width="40" height="40" viewBox="0 0 40 40" fill="none">
    <path d="M9.58671 6.15399C13.5994 9.28212 17.9155 15.6246 19.5001 19.0284C21.0849 15.6249 25.4007 9.28205 29.4135 6.15399C32.3088 3.89686 37 2.15043 37 7.70768C37 8.81754 36.3872 17.0311 36.0278 18.3645C34.7785 23.0005 30.226 24.1829 26.1766 23.4672C33.255 24.7182 35.0556 28.8619 31.1669 33.0056C23.7813 40.8752 20.5517 31.031 19.7237 28.5086C19.572 28.0462 19.501 27.8298 19.5 28.0138C19.4989 27.8298 19.428 28.0462 19.2763 28.5086C18.4487 31.031 15.2191 40.8755 7.83314 33.0056C3.9443 28.8619 5.74492 24.718 12.8234 23.4672C8.77385 24.1829 4.22134 23.0005 2.97221 18.3645C2.61279 17.031 2 8.81742 2 7.70768C2 2.15043 6.6913 3.89686 9.58651 6.15399H9.58671Z" fill="#19191C"/>
</svg>

<svg xmlns="http://www.w3.org/2000/svg" width="40" height="40" fill="none"><path fill="#19191C" d="M9.587 6.154c4.012 3.128 8.329 9.47 9.913 12.874 1.585-3.403 5.9-9.746 9.914-12.874C32.309 3.897 37 2.15 37 7.708c0 1.11-.613 9.323-.972 10.657-1.25 4.636-5.802 5.818-9.851 5.102 7.078 1.251 8.879 5.395 4.99 9.539-7.386 7.87-10.615-1.975-11.443-4.497-.152-.463-.223-.68-.224-.495-.001-.184-.072.032-.224.495-.827 2.522-4.057 12.367-11.443 4.497-3.889-4.144-2.088-8.288 4.99-9.539-4.05.716-8.602-.466-9.85-5.102C2.612 17.03 2 8.817 2 7.708 2 2.15 6.691 3.897 9.587 6.154"/></svg>
